images/indikatorenset/4287.svg

<?xml version="1.0" standalone="no"?><!DOCTYPE svg PUBLIC "-//W3C//DTD SVG 1.1//EN" "http://www.w3.org/Graphics/SVG/1.1/DTD/svg11.dtd"><svg xmlns:xlink="http://www.w3.org/1999/xlink" version="1.1" class="highcharts-root" style="font-family:arial;font-size:9pt;" xmlns="http://www.w3.org/2000/svg" width="485" height="415"><desc>Created with Highstock 5.0.14</desc><defs><clipPath id="highcharts-3s6wa12-7"><rect x="0" y="0" width="432" height="254" fill="none"></rect></clipPath><clipPath id="highcharts-3s6wa12-8"><rect x="0" y="0" width="432" height="254" fill="none"></rect></clipPath></defs><rect fill="#fbfbfb" class="highcharts-background" x="0" y="0" width="485" height="415" rx="0" ry="0"></rect><rect fill="none" class="highcharts-plot-background" x="43" y="90" width="432" height="254"></rect><g class="highcharts-label" style="cursor:pointer;" transform="translate(10,451)"><text x="0" y="0"><tspan>&gt; Indikator-Details</tspan></text></g><g class="highcharts-pane-group"></g><g class="highcharts-grid highcharts-xaxis-grid "><path fill="none" class="highcharts-grid-line" d="M 78.5 90 L 78.5 344" opacity="1"></path><path fill="none" class="highcharts-grid-line" d="M 114.5 90 L 114.5 344" opacity="1"></path><path fill="none" class="highcharts-grid-line" d="M 150.5 90 L 150.5 344" opacity="1"></path><path fill="none" class="highcharts-grid-line" d="M 186.5 90 L 186.5 344" opacity="1"></path><path fill="none" class="highcharts-grid-line" d="M 222.5 90 L 222.5 344" opacity="1"></path><path fill="none" class="highcharts-grid-line" d="M 258.5 90 L 258.5 344" opacity="1"></path><path fill="none" class="highcharts-grid-line" d="M 294.5 90 L 294.5 344" opacity="1"></path><path fill="none" class="highcharts-grid-line" d="M 330.5 90 L 330.5 344" opacity="1"></path><path fill="none" class="highcharts-grid-line" d="M 366.5 90 L 366.5 344" opacity="1"></path><path fill="none" class="highcharts-grid-line" d="M 402.5 90 L 402.5 344" opacity="1"></path><path fill="none" class="highcharts-grid-line" d="M 438.5 90 L 438.5 344" opacity="1"></path><path fill="none" class="highcharts-grid-line" d="M 474.5 90 L 474.5 344" opacity="1"></path><path fill="none" class="highcharts-grid-line" d="M 42.5 90 L 42.5 344" opacity="1"></path></g><g class="highcharts-grid highcharts-yaxis-grid "><path fill="none" stroke="#e6e6e6" stroke-width="1" class="highcharts-grid-line" d="M 43 344.5 L 475 344.5" opacity="1"></path><path fill="none" stroke="#e6e6e6" stroke-width="1" class="highcharts-grid-line" d="M 43 259.5 L 475 259.5" opacity="1"></path><path fill="none" stroke="#e6e6e6" stroke-width="1" class="highcharts-grid-line" d="M 43 175.5 L 475 175.5" opacity="1"></path><path fill="none" stroke="#e6e6e6" stroke-width="1" class="highcharts-grid-line" d="M 43 90.5 L 475 90.5" opacity="1"></path></g><g class="highcharts-grid highcharts-yaxis-grid "></g><rect fill="none" class="highcharts-plot-border" x="43" y="90" width="432" height="254"></rect><g class="highcharts-axis highcharts-xaxis "><path fill="none" class="highcharts-axis-line" stroke="#ccd6eb" stroke-width="1" d="M 43 344.5 L 475 344.5"></path></g><g class="highcharts-axis highcharts-yaxis "><path fill="none" class="highcharts-axis-line" d="M 43 90 L 43 344"></path></g><g class="highcharts-axis highcharts-yaxis "><path fill="none" class="highcharts-axis-line" d="M 475 90 L 475 344"></path></g><g class="highcharts-series-group"><g class="highcharts-series highcharts-series-0 highcharts-column-series highcharts-color-undefined " transform="translate(43,90) scale(1 1)" clip-path="url(#highcharts-3s6wa12-8)"><rect x="9" y="41" width="18" height="185" fill="#73B97C" class="highcharts-point"></rect><rect x="45" y="120" width="18" height="90" fill="#73B97C" class="highcharts-point"></rect><rect x="81" y="84" width="18" height="106" fill="#73B97C" class="highcharts-point"></rect><rect x="117" y="137" width="18" height="81" fill="#73B97C" class="highcharts-point"></rect><rect x="153" y="188" width="18" height="36" fill="#73B97C" class="highcharts-point"></rect><rect x="189" y="132" width="18" height="24" fill="#73B97C" class="highcharts-point"></rect><rect x="225" y="195" width="18" height="30" fill="#73B97C" class="highcharts-point"></rect><rect x="261" y="220" width="18" height="20" fill="#73B97C" class="highcharts-point"></rect><rect x="297" y="35" width="18" height="22" fill="#73B97C" class="highcharts-point"></rect><rect x="333" y="196" width="18" height="16" fill="#73B97C" class="highcharts-point"></rect><rect x="369" y="174" width="18" height="59" fill="#73B97C" class="highcharts-point"></rect><rect x="405" y="184" width="18" height="53" fill="#73B97C" class="highcharts-point"></rect></g><g class="highcharts-markers highcharts-series-0 highcharts-column-series highcharts-color-undefined " transform="translate(43,90) scale(1 1)" clip-path="none"></g><g class="highcharts-series highcharts-series-1 highcharts-column-series highcharts-color-undefined " transform="translate(43,90) scale(1 1)" clip-path="url(#highcharts-3s6wa12-8)"><rect x="9" y="226" width="18" height="29" fill="#68AB2B" class="highcharts-point"></rect><rect x="45" y="210" width="18" height="45" fill="#68AB2B" class="highcharts-point"></rect><rect x="81" y="190" width="18" height="65" fill="#68AB2B" class="highcharts-point"></rect><rect x="117" y="218" width="18" height="37" fill="#68AB2B" class="highcharts-point"></rect><rect x="153" y="224" width="18" height="31" fill="#68AB2B" class="highcharts-point"></rect><rect x="189" y="156" width="18" height="99" fill="#68AB2B" class="highcharts-point"></rect><rect x="225" y="225" width="18" height="30" fill="#68AB2B" class="highcharts-point"></rect><rect x="261" y="240" width="18" height="15" fill="#68AB2B" class="highcharts-point"></rect><rect x="297" y="57" width="18" height="198" fill="#68AB2B" class="highcharts-point"></rect><rect x="333" y="212" width="18" height="43" fill="#68AB2B" class="highcharts-point"></rect><rect x="369" y="233" width="18" height="22" fill="#68AB2B" class="highcharts-point"></rect><rect x="405" y="237" width="18" height="18" fill="#68AB2B" class="highcharts-point"></rect></g><g class="highcharts-markers highcharts-series-1 highcharts-column-series highcharts-color-undefined " transform="translate(43,90) scale(1 1)" clip-path="none"></g></g><text x="10" text-anchor="start" class="highcharts-title" style="color:#000000;font-size:1.1em;font-weight:bold;fill:#000000;" y="20"><tspan>Zwangsnutzungen</tspan></text><text x="10" text-anchor="start" class="highcharts-subtitle" style="color:#000000;font-size:0.9em;fill:#000000;" y="38"><tspan>Kubikmeter</tspan></text><g class="highcharts-legend" transform="translate(10,40)"><rect fill="none" class="highcharts-legend-box" rx="0" ry="0" x="0" y="0" width="373" height="38" visibility="visible"></rect><g><g><g class="highcharts-legend-item highcharts-column-series highcharts-color-undefined highcharts-series-0" transform="translate(12,7)"><text x="21" style="color:#333333;font-size:1em;font-weight:normal;cursor:pointer;fill:#333333;" text-anchor="start" y="15"><tspan>Biotische Schadereignisse</tspan></text><rect x="2" y="4" width="12" height="12" fill="#73B97C" class="highcharts-point"></rect></g><g class="highcharts-legend-item highcharts-column-series highcharts-color-undefined highcharts-series-1" transform="translate(193.65625,7)"><text x="21" y="15" style="color:#333333;font-size:1em;font-weight:normal;cursor:pointer;fill:#333333;" text-anchor="start"><tspan>Abiotische Schadereignisse</tspan></text><rect x="2" y="4" width="12" height="12" fill="#68AB2B" class="highcharts-point"></rect></g></g></g></g><g class="highcharts-axis-labels highcharts-xaxis-labels "><text x="61" style="color:#000000;cursor:default;font-size:0.9em;fill:#000000;" text-anchor="middle" transform="translate(0,0)" y="363" opacity="1">2004</text><text x="97" style="color:#000000;cursor:default;font-size:0.9em;fill:#000000;" text-anchor="middle" transform="translate(0,0)" y="363" opacity="1">2005</text><text x="133" style="color:#000000;cursor:default;font-size:0.9em;fill:#000000;" text-anchor="middle" transform="translate(0,0)" y="363" opacity="1">2006</text><text x="169" style="color:#000000;cursor:default;font-size:0.9em;fill:#000000;" text-anchor="middle" transform="translate(0,0)" y="363" opacity="1">2007</text><text x="205" style="color:#000000;cursor:default;font-size:0.9em;fill:#000000;" text-anchor="middle" transform="translate(0,0)" y="363" opacity="1">2008</text><text x="241" style="color:#000000;cursor:default;font-size:0.9em;fill:#000000;" text-anchor="middle" transform="translate(0,0)" y="363" opacity="1">2009</text><text x="277" style="color:#000000;cursor:default;font-size:0.9em;fill:#000000;" text-anchor="middle" transform="translate(0,0)" y="363" opacity="1">2010</text><text x="313" style="color:#000000;cursor:default;font-size:0.9em;fill:#000000;" text-anchor="middle" transform="translate(0,0)" y="363" opacity="1">2011</text><text x="349" style="color:#000000;cursor:default;font-size:0.9em;fill:#000000;" text-anchor="middle" transform="translate(0,0)" y="363" opacity="1">2012</text><text x="385" style="color:#000000;cursor:default;font-size:0.9em;fill:#000000;" text-anchor="middle" transform="translate(0,0)" y="363" opacity="1">2013</text><text x="421" style="color:#000000;cursor:default;font-size:0.9em;fill:#000000;" text-anchor="middle" transform="translate(0,0)" y="363" opacity="1">2014</text><text x="457" style="color:#000000;cursor:default;font-size:0.9em;fill:#000000;" text-anchor="middle" transform="translate(0,0)" y="363" opacity="1">2015</text></g><g class="highcharts-axis-labels highcharts-yaxis-labels "><text x="28" style="color:#000000;cursor:default;font-size:0.9em;fill:#000000;" text-anchor="end" transform="translate(0,0)" y="349" opacity="1"><tspan>0</tspan></text><text x="28" style="color:#000000;cursor:default;font-size:0.9em;fill:#000000;" text-anchor="end" transform="translate(0,0)" y="264" opacity="1"><tspan>10k</tspan></text><text x="28" style="color:#000000;cursor:default;font-size:0.9em;fill:#000000;" text-anchor="end" transform="translate(0,0)" y="179" opacity="1"><tspan>20k</tspan></text><text x="28" style="color:#000000;cursor:default;font-size:0.9em;fill:#000000;" text-anchor="end" transform="translate(0,0)" y="94" opacity="1"><tspan>30k</tspan></text></g><g class="highcharts-axis-labels highcharts-yaxis-labels "></g><text x="10" class="highcharts-credits" text-anchor="start" style="cursor:default;color:#000000;font-size:0.8em;fill:#000000;" y="400"><tspan>Quelle: Amt für Wald beider Basel</tspan></text></svg>

<svg class="highcharts-root" xmlns="http://www.w3.org/2000/svg" viewBox="0 0 485 415" font-family="Arial" font-size="12">
    <defs>
        <clipPath id="a">
            <path fill="none" d="M0 0h432v254H0z"/>
        </clipPath>
    </defs>
    <rect fill="#fbfbfb" class="highcharts-background" width="485" height="415" rx="0" ry="0"/>
    <path fill="none" class="highcharts-plot-background" d="M43 90h432v254H43z"/>
    <text transform="translate(10 451)" class="highcharts-label" cursor="pointer">
        <tspan>&gt; Indikator-Details</tspan>
    </text>
    <g class="highcharts-grid highcharts-xaxis-grid">
        <path fill="none" class="highcharts-grid-line" d="M78.5 90v254m0-254v254m36-254v254m0-254v254m36-254v254m0-254v254m36-254v254m0-254v254m36-254v254m0-254v254m36-254v254m0-254v254m36-254v254m0-254v254m36-254v254m0-254v254m36-254v254m0-254v254m36-254v254m0-254v254m36-254v254m0-254v254m36-254v254m0-254v254M42.5 90v254m0-254v254"/>
    </g>
    <g class="highcharts-grid highcharts-yaxis-grid">
        <path fill="none" stroke="#e6e6e6" class="highcharts-grid-line" d="M43 344.5h432m-432-85h432m-432-84h432m-432-85h432"/>
    </g>
    <path fill="none" class="highcharts-plot-border" d="M43 90h432v254H43z"/>
    <g class="highcharts-axis highcharts-xaxis">
        <path fill="none" class="highcharts-axis-line" stroke="#ccd6eb" d="M43 344.5h432"/>
    </g>
    <g class="highcharts-axis highcharts-yaxis">
        <path fill="none" class="highcharts-axis-line" d="M43 90v254"/>
    </g>
    <g class="highcharts-axis highcharts-yaxis">
        <path fill="none" class="highcharts-axis-line" d="M475 90v254"/>
    </g>
    <g class="highcharts-series-group">
        <g class="highcharts-series highcharts-series-0 highcharts-column-series highcharts-color-undefined highcharts-tracker" transform="translate(43 90)" clip-path="url(#a)">
            <path fill="#73B97C" class="highcharts-point" d="M9 41h18v185H9zm36 79h18v90H45zm36-36h18v106H81zm36 53h18v81h-18zm36 51h18v36h-18zm36-56h18v24h-18zm36 63h18v30h-18zm36 25h18v20h-18zm36-185h18v22h-18zm36 161h18v16h-18zm36-22h18v59h-18zm36 10h18v53h-18z"/>
        </g>
        <g class="highcharts-series highcharts-series-1 highcharts-column-series highcharts-color-undefined highcharts-tracker" transform="translate(43 90)" clip-path="url(#a)">
            <path fill="#68AB2B" class="highcharts-point" d="M9 226h18v29H9zm36-16h18v45H45zm36-20h18v65H81zm36 28h18v37h-18zm36 6h18v31h-18zm36-68h18v99h-18zm36 69h18v30h-18zm36 15h18v15h-18zm36-183h18v198h-18zm36 155h18v43h-18zm36 21h18v22h-18zm36 4h18v18h-18z"/>
        </g>
    </g>
    <text x="10" class="highcharts-title" y="20" color="#000" font-size="1.1em" font-weight="700">
        <tspan>Zwangsnutzungen</tspan>
    </text>
    <text x="10" class="highcharts-subtitle" y="38" color="#000" font-size=".9em">
        <tspan>Kubikmeter</tspan>
    </text>
    <g class="highcharts-legend" transform="translate(10 40)">
        <rect fill="none" class="highcharts-legend-box" rx="0" ry="0" width="373" height="38"/>
        <g class="highcharts-legend-item highcharts-column-series highcharts-color-undefined highcharts-series-0">
            <text x="21" y="15" color="#333" font-size="1em" font-weight="400" cursor="pointer" fill="#333" transform="translate(12 7)">
                <tspan>Biotische Schadereignisse</tspan>
            </text>
            <path fill="#73B97C" class="highcharts-point" d="M14 11h12v12H14z"/>
        </g>
        <g class="highcharts-legend-item highcharts-column-series highcharts-color-undefined highcharts-series-1">
            <text x="21" y="15" color="#333" font-size="1em" font-weight="400" cursor="pointer" fill="#333" transform="translate(193.656 7)">
                <tspan>Abiotische Schadereignisse</tspan>
            </text>
            <path fill="#68AB2B" class="highcharts-point" d="M195.656 11h12v12h-12z"/>
        </g>
    </g>
    <g class="highcharts-axis-labels highcharts-xaxis-labels" text-anchor="middle" color="#000" cursor="default" font-size=".9em">
        <text x="61" y="363">
            2004
        </text>
        <text x="97" y="363">
            2005
        </text>
        <text x="133" y="363">
            2006
        </text>
        <text x="169" y="363">
            2007
        </text>
        <text x="205" y="363">
            2008
        </text>
        <text x="241" y="363">
            2009
        </text>
        <text x="277" y="363">
            2010
        </text>
        <text x="313" y="363">
            2011
        </text>
        <text x="349" y="363">
            2012
        </text>
        <text x="385" y="363">
            2013
        </text>
        <text x="421" y="363">
            2014
        </text>
        <text x="457" y="363">
            2015
        </text>
    </g>
    <g class="highcharts-axis-labels highcharts-yaxis-labels" text-anchor="end" color="#000" cursor="default" font-size=".9em">
        <text x="28" y="349">
            <tspan>0</tspan>
        </text>
        <text x="28" y="264">
            <tspan>10k</tspan>
        </text>
        <text x="28" y="179">
            <tspan>20k</tspan>
        </text>
        <text x="28" y="94">
            <tspan>30k</tspan>
        </text>
    </g>
    <text x="10" class="highcharts-credits" y="400" cursor="default" color="#000" font-size=".8em">
        <tspan>Quelle: Amt für Wald beider Basel</tspan>
    </text>
</svg>
